X: 541
T:Barney Bralligan
M:9/8
L:1/8
R:Slip Jig
% TUNEdb Number 2725
N:Posted to the woodenflute mailing list June 2002
K:D
F2A ABA ABA|F2A ABA d2f|F2A ABA ABA|BAB e2d cBA:|!
f2a f2a f2d|f2a f2a gfe|f2a f2a f2d|g2f e2d cBA:|!
f3 a3 d3|g2f e2d cBA|f2d e2c d2B|A2B A2G FED:|!

